data/resources/assets/start-fg.svg

<svg xmlns="http://www.w3.org/2000/svg" xmlns:xlink="http://www.w3.org/1999/xlink" width="600" height="300"><defs><radialGradient r="33.5" fy="48.406" fx="79.091" cy="48.406" cx="79.091" gradientTransform="matrix(.00476 1.62228 -1.43419 .00422 141.702 -82.047)" gradientUnits="userSpaceOnUse" id="f" xlink:href="#b"/><radialGradient r="12" fy="54.102" fx="71.474" cy="54.102" cx="71.474" gradientTransform="matrix(4.50607 0 0 4.76661 -259.306 -59.706)" gradientUnits="userSpaceOnUse" id="g" xlink:href="#c"/><radialGradient r="14.583" fy="49.777" fx="40.152" cy="49.777" cx="40.152" gradientTransform="matrix(.87016 4.27869 -2.56693 .52204 148.394 -163.306)" gradientUnits="userSpaceOnUse" id="h" xlink:href="#d"/><radialGradient r="14.583" fy="49.777" fx="40.152" cy="49.777" cx="40.152" gradientTransform="matrix(.87016 4.27869 -2.56693 .52204 148.394 -163.306)" gradientUnits="userSpaceOnUse" id="i" xlink:href="#d"/><linearGradient id="a"><stop offset="0"/><stop offset="1" stop-color="#484848"/></linearGradient><linearGradient id="b"><stop offset="0" stop-color="#fff"/><stop offset=".519" stop-color="#fff"/><stop offset=".734" stop-color="#cfcfcf"/><stop offset="1" stop-color="#dcdcdc"/></linearGradient><linearGradient id="c"><stop offset="0" stop-color="#ed686f"/><stop offset=".865" stop-color="#a51d2d"/><stop offset="1" stop-color="#e01b24"/></linearGradient><linearGradient id="d"><stop offset="0" stop-color="#ed686f"/><stop offset=".911" stop-color="#a51d2d"/><stop offset="1" stop-color="#e01b24"/></linearGradient><clipPath id="e" clipPathUnits="userSpaceOnUse"><path d="M65 177c-18.502 0-33.5 14.998-33.5 33.5.008 7.371 4.131 15.807 11.388 23.526l12.617 13.171H75.02l12.137-13.245c6.636-7.059 11.33-16.117 11.344-23.452 0-18.502-14.998-33.5-33.5-33.5z" style="marker:none" fill="#fff" stroke-width="2"/></clipPath></defs><g transform="matrix(3.12129 0 0 2.9344 104.397 -507.328)" clip-path="url(#e)"><path transform="translate(-8 156)" d="M73 21c-18.502 0-33.5 14.998-33.5 33.5.008 7.371 3.5 14.422 6.94 20.379L58 98h30l11.605-23.21c3.395-5.88 6.88-12.955 6.895-20.29C106.5 35.998 91.502 21 73 21z" style="marker:none" fill="url(#f)"/><path d="M64 177s-18.332 12.132-18.332 30.989C45.668 222.56 61.842 254 61.842 254H67s1.333-31.44 1.333-46.011C68.333 189.132 64 177 64 177z" fill="url(#g)"/><path transform="translate(-8 156)" d="M71.983 21.106c-8.207.147-16.328 3.285-22.5 8.695-6.174 5.409-10.35 13.047-11.574 21.163-1.24 8.225.567 16.874 4.995 23.915L61.902 98h6.432L55.002 81.27c-4.3-5.395-8.472-11.07-10.596-17.634-2.123-6.564-2.166-13.8.003-20.348A32.824 32.824 0 0154.925 28.13a32.824 32.824 0 0117.058-7.025z" fill="url(#h)"/><path transform="matrix(-1 0 0 1 137.16 155.823)" d="M73.003 21.303c-7.709-1.547-15.97-.154-22.746 3.835-6.776 3.989-12.002 10.537-14.39 18.029a32.484 32.484 0 00-.757 16.805 32.484 32.484 0 007.794 14.907L54.11 98h13.383L54.16 74.356c-2.868-5.087-5.557-10.406-6.427-16.181-.87-5.775.036-11.771 2.374-17.123 4.173-9.55 12.836-17.022 22.895-19.748z" fill="url(#i)"/></g><path style="marker:none" d="M284.394 260.184v19.397a9.702 9.702 0 009.724 9.726h26.326c5.388 0 8.594-4.457 9.725-9.726v-19.397z" fill="#e5a50a"/><path style="marker:none" d="M284.394 256.023v19.397a9.702 9.702 0 009.724 9.724h26.326c5.388 0 8.594-4.455 9.725-9.724v-19.397z" fill="#e5a50a"/><path style="marker:none" d="M313.524 256.023v29.121h6.92c5.388 0 8.594-4.455 9.725-9.724v-19.397z" fill="#f3af0b"/></svg>

<?xml version="1.0" encoding="UTF-8" standalone="no"?>
<svg
   xmlns:dc="http://purl.org/dc/elements/1.1/"
   xmlns:cc="http://creativecommons.org/ns#"
   xmlns:rdf="http://www.w3.org/1999/02/22-rdf-syntax-ns#"
   xmlns:svg="http://www.w3.org/2000/svg"
   xmlns="http://www.w3.org/2000/svg"
   xmlns:xlink="http://www.w3.org/1999/xlink"
   xmlns:sodipodi="http://sodipodi.sourceforge.net/DTD/sodipodi-0.dtd"
   xmlns:inkscape="http://www.inkscape.org/namespaces/inkscape"
   width="600"
   height="300"
   version="1.1"
   id="svg55"
   sodipodi:docname="start-fg.svg"
   inkscape:version="1.0.2 (e86c870879, 2021-01-15)">
  <metadata
     id="metadata59">
    <rdf:RDF>
      <cc:Work
         rdf:about="">
        <dc:format>image/svg+xml</dc:format>
        <dc:type
           rdf:resource="http://purl.org/dc/dcmitype/StillImage" />
      </cc:Work>
    </rdf:RDF>
  </metadata>
  <sodipodi:namedview
     pagecolor="#ffffff"
     bordercolor="#666666"
     borderopacity="1"
     objecttolerance="10"
     gridtolerance="10"
     guidetolerance="10"
     inkscape:pageopacity="0"
     inkscape:pageshadow="2"
     inkscape:window-width="1920"
     inkscape:window-height="1011"
     id="namedview57"
     showgrid="true"
     inkscape:zoom="1.1716667"
     inkscape:cx="113.31649"
     inkscape:cy="-153.22852"
     inkscape:window-x="0"
     inkscape:window-y="0"
     inkscape:window-maximized="1"
     inkscape:current-layer="svg55"
     inkscape:document-rotation="0" />
  <defs
     id="defs37">
    <radialGradient
       r="33.5"
       fy="48.406"
       fx="79.091"
       cy="48.406"
       cx="79.091"
       gradientTransform="matrix(0.00476,1.62228,-1.43419,0.00422,141.702,-82.047)"
       gradientUnits="userSpaceOnUse"
       id="f"
       xlink:href="#b" />
    <radialGradient
       r="12"
       fy="54.102"
       fx="71.474"
       cy="54.102"
       cx="71.474"
       gradientTransform="matrix(4.50607,0,0,4.76661,-259.306,-59.706)"
       gradientUnits="userSpaceOnUse"
       id="g"
       xlink:href="#c" />
    <radialGradient
       r="14.583"
       fy="49.777"
       fx="40.152"
       cy="49.777"
       cx="40.152"
       gradientTransform="matrix(0.87016,4.27869,-2.56693,0.52204,148.394,-163.306)"
       gradientUnits="userSpaceOnUse"
       id="h"
       xlink:href="#d" />
    <radialGradient
       r="14.583"
       fy="49.777"
       fx="40.152"
       cy="49.777"
       cx="40.152"
       gradientTransform="matrix(0.87016,4.27869,-2.56693,0.52204,148.394,-163.306)"
       gradientUnits="userSpaceOnUse"
       id="i"
       xlink:href="#d" />
    <linearGradient
       id="a">
      <stop
         offset="0"
         id="stop6" />
      <stop
         offset="1"
         stop-color="#484848"
         id="stop8" />
    </linearGradient>
    <linearGradient
       id="b">
      <stop
         offset="0"
         stop-color="#fff"
         id="stop11" />
      <stop
         offset=".519"
         stop-color="#fff"
         id="stop13" />
      <stop
         offset=".734"
         stop-color="#cfcfcf"
         id="stop15" />
      <stop
         offset="1"
         stop-color="#dcdcdc"
         id="stop17" />
    </linearGradient>
    <linearGradient
       id="c">
      <stop
         offset="0"
         stop-color="#ed686f"
         id="stop20" />
      <stop
         offset=".865"
         stop-color="#a51d2d"
         id="stop22" />
      <stop
         offset="1"
         stop-color="#e01b24"
         id="stop24" />
    </linearGradient>
    <linearGradient
       id="d">
      <stop
         offset="0"
         stop-color="#ed686f"
         id="stop27" />
      <stop
         offset=".911"
         stop-color="#a51d2d"
         id="stop29" />
      <stop
         offset="1"
         stop-color="#e01b24"
         id="stop31" />
    </linearGradient>
    <clipPath
       id="e"
       clipPathUnits="userSpaceOnUse">
      <path
         d="M65 177c-18.502 0-33.5 14.998-33.5 33.5.008 7.371 4.131 15.807 11.388 23.526l12.617 13.171H75.02l12.137-13.245c6.636-7.059 11.33-16.117 11.344-23.452 0-18.502-14.998-33.5-33.5-33.5z"
         style="marker:none"
         fill="#fff"
         stroke-width="2"
         id="path34" />
    </clipPath>
    <clipPath
       id="e-3"
       clipPathUnits="userSpaceOnUse">
      <path
         d="m 65,177 c -18.502,0 -33.5,14.998 -33.5,33.5 0.008,7.371 4.131,15.807 11.388,23.526 l 12.617,13.171 H 75.02 l 12.137,-13.245 c 6.636,-7.059 11.33,-16.117 11.344,-23.452 0,-18.502 -14.998,-33.5 -33.5,-33.5 z"
         style="marker:none"
         fill="#ffffff"
         stroke-width="2"
         id="path34-6" />
    </clipPath>
    <radialGradient
       r="33.5"
       fy="48.405998"
       fx="79.091003"
       cy="48.405998"
       cx="79.091003"
       gradientTransform="matrix(0.00476,1.62228,-1.43419,0.00422,141.702,-82.047)"
       gradientUnits="userSpaceOnUse"
       id="f-7"
       xlink:href="#b" />
    <radialGradient
       r="12"
       fy="54.102001"
       fx="71.473999"
       cy="54.102001"
       cx="71.473999"
       gradientTransform="matrix(4.50607,0,0,4.76661,-259.306,-59.706)"
       gradientUnits="userSpaceOnUse"
       id="g-2"
       xlink:href="#c" />
    <radialGradient
       r="14.583"
       fy="49.777"
       fx="40.152"
       cy="49.777"
       cx="40.152"
       gradientTransform="matrix(0.87016,4.27869,-2.56693,0.52204,148.394,-163.306)"
       gradientUnits="userSpaceOnUse"
       id="h-7"
       xlink:href="#d" />
    <radialGradient
       r="14.583"
       fy="49.777"
       fx="40.152"
       cy="49.777"
       cx="40.152"
       gradientTransform="matrix(0.87016,4.27869,-2.56693,0.52204,148.394,-163.306)"
       gradientUnits="userSpaceOnUse"
       id="i-6"
       xlink:href="#d" />
  </defs>
  <g
     id="g245"
     transform="translate(-84.921763,-76.58193)">
    <g
       id="g126"
       transform="matrix(0.75000161,0,0,0.75000161,154.45946,111.99828)">
      <g
         id="g265">
        <g
           transform="matrix(3.12129,0,0,2.9344,91.063695,-499.94397)"
           clip-path="url(#e-3)"
           id="g47-0">
          <path
             transform="translate(-8,156)"
             d="M 73,21 C 54.498,21 39.5,35.998 39.5,54.5 39.508,61.871 43,68.922 46.44,74.879 L 58,98 H 88 L 99.605,74.79 C 103,68.91 106.485,61.835 106.5,54.5 106.5,35.998 91.502,21 73,21 Z"
             style="fill:url(#f-7);marker:none"
             fill="url(#f)"
             id="path39-6" />
          <path
             d="m 64,177 c 0,0 -18.332,12.132 -18.332,30.989 0,14.571 16.174,46.011 16.174,46.011 H 67 c 0,0 1.333,-31.44 1.333,-46.011 C 68.333,189.132 64,177 64,177 Z"
             fill="url(#g)"
             id="path41-2"
             style="fill:url(#g-2)" />
          <path
             transform="translate(-8,156)"
             d="m 71.983,21.106 c -8.207,0.147 -16.328,3.285 -22.5,8.695 -6.174,5.409 -10.35,13.047 -11.574,21.163 -1.24,8.225 0.567,16.874 4.995,23.915 L 61.902,98 h 6.432 L 55.002,81.27 C 50.702,75.875 46.53,70.2 44.406,63.636 42.283,57.072 42.24,49.836 44.409,43.288 A 32.824,32.824 0 0 1 54.925,28.13 32.824,32.824 0 0 1 71.983,21.105 Z"
             fill="url(#h)"
             id="path43-6"
             style="fill:url(#h-7)" />
          <path
             transform="matrix(-1,0,0,1,137.16,155.823)"
             d="M 73.003,21.303 C 65.294,19.756 57.033,21.149 50.257,25.138 43.481,29.127 38.255,35.675 35.867,43.167 A 32.484,32.484 0 0 0 35.11,59.972 32.484,32.484 0 0 0 42.904,74.879 L 54.11,98 H 67.493 L 54.16,74.356 C 51.292,69.269 48.603,63.95 47.733,58.175 46.863,52.4 47.769,46.404 50.107,41.052 54.28,31.502 62.943,24.03 73.002,21.304 Z"
             fill="url(#i)"
             id="path45-1"
             style="fill:url(#i-6)" />
        </g>
        <path
           style="marker:none"
           d="m 271.0607,256.22128 v 19.397 a 9.702,9.702 0 0 0 9.724,9.726 h 26.326 c 5.388,0 8.594,-4.457 9.725,-9.726 v -19.397 z"
           fill="#e5a50a"
           id="path49-8" />
        <path
           style="marker:none"
           d="m 271.0607,252.06028 v 19.397 a 9.702,9.702 0 0 0 9.724,9.724 h 26.326 c 5.388,0 8.594,-4.455 9.725,-9.724 v -19.397 z"
           fill="#e5a50a"
           id="path51-7" />
        <path
           style="marker:none"
           d="m 300.1907,252.06028 v 29.121 h 6.92 c 5.388,0 8.594,-4.455 9.725,-9.724 v -19.397 z"
           fill="#f3af0b"
           id="path53-9" />
      </g>
    </g>
  </g>
</svg>
